omega/web/assets/images/sports/quasar-floo.svg

<svg enable-background="new -49 141 512 512" fill="#830001" viewBox="-49 141 512 512" xmlns="http://www.w3.org/2000/svg"><path d="m209.4 636c-130.5.7-237.9-106.3-238.4-237.5-.5-132 105.5-239.1 237.2-239.5 131.3-.4 238.2 105.6 238.8 236.9.6 132.8-104.9 239.5-237.6 240.1zm-157.6-277.5c.1 18.5 14.7 33.3 33.1 33.5 17.5.2 31.6-14.7 31.8-33.4.1-18.6-14-34.1-31.1-34.1-18.7 0-33.9 15.4-33.8 34zm216.1 28.3c-18.5-.2-33.8 14.7-33.7 32.7.1 17.7 15 32.4 32.9 32.6 18.6.1 33.7-14.5 33.7-32.8-.1-17.8-14.7-32.3-32.9-32.5zm-153.3 79.7c.1 17.4 14.7 31.4 32.4 31.4 17.9-.1 32.6-14.1 32.8-31.3.2-17.5-15-32.1-33.2-31.9-17.8.1-32.1 14.4-32 31.8zm279.6-91c.1-19-10.8-33.5-25.7-34.1-14.6-.6-26.3 12.6-27.8 31.3-1.5 18.3 11 35.6 26 36.2 15.2.7 27.4-14.1 27.5-33.4zm-183.9-111.8c-16.3 0-30 12.7-30.1 27.8 0 15.2 13.3 27.3 30.3 27.3 16.3 0 31-13.2 30.5-27.6-.4-15.1-14.4-27.5-30.7-27.5zm90.3-14.1c.3 18.1 14.2 35.5 31.7 39.5 12 2.7 21.6-4.9 21.7-17.3.2-15.4-12.6-33.1-28.5-39.4-14.3-5.8-25.1 1.7-24.9 17.2zm-86.5 329.9c9.7-3.8 19.4-6.1 27.5-11.2 9.9-6.1 9.2-17.5.2-24.7-13.8-11-41.5-11.1-55.4-.2-9.7 7.6-10.3 18.8.2 25.2 7.9 5 17.7 7.2 27.5 10.9zm-140.6-324.7c.5-12-6.8-17.6-17.6-12.5-19.1 9.1-30.2 25-34.2 45.4-2.1 11 5.4 16.6 16.3 13.3 16.7-5 34.8-28.6 35.5-46.2zm-40.4 230.3c.2 15.7 20.7 42.2 35.9 46.3 10.2 2.8 16.3-2.8 15.4-13.9-1.4-17-19.4-39-35.8-43.8-9.6-2.9-15.6 1.5-15.5 11.4zm105.9-268.5c14.2.1 30.6-4.8 38.6-12.9 3.8-3.8 8.3-11.1 7-14.6-1.7-4.5-8.8-8.7-14.1-9.7-13.7-2.5-26.8 1.1-38.6 8.3-7 4.3-15.3 9.4-12.4 19.1 2.9 9.6 12.6 9.2 19.5 9.8zm251 257.6c.2-10.6-6-15-16-11.6-15 5.2-32.4 29.5-32.4 45.3 0 10 6.2 14.5 15.6 11.4 15-5.1 32.5-29.2 32.8-45.1zm-390.4-104.4c-1.8-8.1-3-15.6-5.3-22.7-.9-2.7-4-6.2-6.4-6.4-2.2-.2-5.8 3.1-7 5.6-7.1 16.1-7.3 32.6-1.2 49.1 1 2.6 4.5 6 6.7 5.9 2.4-.1 5.9-3.4 6.8-6 2.8-8.4 4.4-17.1 6.4-25.5zm290.4-185.3c-8.3-12.3-45-23.3-57.2-16.7-1.5.8-2.6 5.9-1.6 7.4 7.1 10.4 46.1 18 57.1 11.6.8-.5 1.2-1.6 1.7-2.3zm138 195.1c1.4-1.2 2.5-1.6 2.9-2.4 6.4-11.4.9-48.6-8.6-57.2-5.1-4.7-8.4-1.4-8.7 3.5-.5 9.4-1 19.1.7 28.2 1.9 10.2 3.8 21.2 13.7 27.9zm-265.6 236.8c-8.3-13.9-33-25.6-51-25.3-3 .1-5.9 1.8-8.9 2.8 1.7 2.9 2.8 6.8 5.3 8.7 12.9 9.7 27.7 15 43.8 16.3 3.1.1 6.5-1.5 10.8-2.5zm102.7-5.9c15 6 49.4-9.3 54.3-23.5-14.8-5.3-46.4 8.1-54.3 23.5z"/></svg>

<?xml version="1.0" encoding="utf-8"?>
<!-- Generator: Adobe Illustrator 19.1.0, SVG Export Plug-In . SVG Version: 6.00 Build 0)  -->
<svg version="1.1" id="Layer_2" xmlns="http://www.w3.org/2000/svg" xmlns:xlink="http://www.w3.org/1999/xlink" x="0px" y="0px"
	 viewBox="-49 141 512 512" style="enable-background:new -49 141 512 512;" xml:space="preserve" fill="#830001">
<g>
	<path d="M209.4,636C78.9,636.7-28.5,529.7-29,398.5c-0.5-132,105.5-239.1,237.2-239.5c131.3-0.4,238.2,105.6,238.8,236.9
		C447.6,528.7,342.1,635.4,209.4,636z M51.8,358.5c0.1,18.5,14.7,33.3,33.1,33.5c17.5,0.2,31.6-14.7,31.8-33.4
		c0.1-18.6-14-34.1-31.1-34.1C66.9,324.5,51.7,339.9,51.8,358.5z M267.9,386.8c-18.5-0.2-33.8,14.7-33.7,32.7
		c0.1,17.7,15,32.4,32.9,32.6c18.6,0.1,33.7-14.5,33.7-32.8C300.7,401.5,286.1,387,267.9,386.8z M114.6,466.5
		c0.1,17.4,14.7,31.4,32.4,31.4c17.9-0.1,32.6-14.1,32.8-31.3c0.2-17.5-15-32.1-33.2-31.9C128.8,434.8,114.5,449.1,114.6,466.5z
		 M394.2,375.5c0.1-19-10.8-33.5-25.7-34.1c-14.6-0.6-26.3,12.6-27.8,31.3c-1.5,18.3,11,35.6,26,36.2
		C381.9,409.6,394.1,394.8,394.2,375.5z M210.3,263.7c-16.3,0-30,12.7-30.1,27.8c0,15.2,13.3,27.3,30.3,27.3
		c16.3,0,31-13.2,30.5-27.6C240.6,276.1,226.6,263.7,210.3,263.7z M300.6,249.6c0.3,18.1,14.2,35.5,31.7,39.5
		c12,2.7,21.6-4.9,21.7-17.3c0.2-15.4-12.6-33.1-28.5-39.4C311.2,226.6,300.4,234.1,300.6,249.6z M214.1,579.5
		c9.7-3.8,19.4-6.1,27.5-11.2c9.9-6.1,9.2-17.5,0.2-24.7c-13.8-11-41.5-11.1-55.4-0.2c-9.7,7.6-10.3,18.8,0.2,25.2
		C194.5,573.6,204.3,575.8,214.1,579.5z M73.5,254.8c0.5-12-6.8-17.6-17.6-12.5c-19.1,9.1-30.2,25-34.2,45.4
		c-2.1,11,5.4,16.6,16.3,13.3C54.7,296,72.8,272.4,73.5,254.8z M33.1,485.1c0.2,15.7,20.7,42.2,35.9,46.3
		c10.2,2.8,16.3-2.8,15.4-13.9c-1.4-17-19.4-39-35.8-43.8C39,470.8,33,475.2,33.1,485.1z M139,216.6c14.2,0.1,30.6-4.8,38.6-12.9
		c3.8-3.8,8.3-11.1,7-14.6c-1.7-4.5-8.8-8.7-14.1-9.7c-13.7-2.5-26.8,1.1-38.6,8.3c-7,4.3-15.3,9.4-12.4,19.1
		C122.4,216.4,132.1,216,139,216.6z M390,474.2c0.2-10.6-6-15-16-11.6c-15,5.2-32.4,29.5-32.4,45.3c0,10,6.2,14.5,15.6,11.4
		C372.2,514.2,389.7,490.1,390,474.2z M-0.4,369.8c-1.8-8.1-3-15.6-5.3-22.7c-0.9-2.7-4-6.2-6.4-6.4c-2.2-0.2-5.8,3.1-7,5.6
		c-7.1,16.1-7.3,32.6-1.2,49.1c1,2.6,4.5,6,6.7,5.9c2.4-0.1,5.9-3.4,6.8-6C-4,386.9-2.4,378.2-0.4,369.8z M290,184.5
		c-8.3-12.3-45-23.3-57.2-16.7c-1.5,0.8-2.6,5.9-1.6,7.4c7.1,10.4,46.1,18,57.1,11.6C289.1,186.3,289.5,185.2,290,184.5z M428,379.6
		c1.4-1.2,2.5-1.6,2.9-2.4c6.4-11.4,0.9-48.6-8.6-57.2c-5.1-4.7-8.4-1.4-8.7,3.5c-0.5,9.4-1,19.1,0.7,28.2
		C416.2,361.9,418.1,372.9,428,379.6z M162.4,616.4c-8.3-13.9-33-25.6-51-25.3c-3,0.1-5.9,1.8-8.9,2.8c1.7,2.9,2.8,6.8,5.3,8.7
		c12.9,9.7,27.7,15,43.8,16.3C154.7,619,158.1,617.4,162.4,616.4z M265.1,610.5c15,6,49.4-9.3,54.3-23.5
		C304.6,581.7,273,595.1,265.1,610.5z"/>
</g>
</svg>
